X: 36342
T: Sean Coughlan's Kesh
R: jig
M: 6/8
K: Amajor
|:EAA ABc|BcB A2c|def eac|BAc BAF|
EAA ABc|BcB A2c|def eac|B3 A3:|
|:cee ecA|fda ecA|cee ecA|fec B2A|
cee ecA|fda ecA|fda ecA|BAG A3:|

